assets/images/add-page-inserter.svg

<svg width="86" height="96" fill="none" xmlns="http://www.w3.org/2000/svg"><g clip-path="url(#clip0)"><path d="M71.1153 91.0345H1.65381V1.65515H54.5769L71.1153 18.2069v72.8276z" fill="#fff"/><path d="M54.5769 1.65515V18.2069h16.5385L54.5769 1.65515z" fill="#A9A9A9"/><path d="M71.1154 19.8621H54.5769c-.9096 0-1.6538-.7449-1.6538-1.6552V1.65517C52.9231.744828 53.6673 0 54.5769 0c.4466 0 .86.182069 1.1743.48l16.5384 16.5517c.645.6455.645 1.6883 0 2.3338-.3142.3145-.7277.4966-1.1742.4966zm-14.8846-3.3104h10.8988L56.2308 5.64414V16.5517z" fill="#686868"/><path d="M38.0385 92.6897H1.65385C.744231 92.6897 0 91.9448 0 91.0345V1.65517C0 .744828.744231 0 1.65385 0H54.5769c.4466 0 .86.182069 1.1743.48l16.5384 16.5517c.2977.3145.4796.7283.4796 1.1752V48c0 .9103-.7442 1.6552-1.6538 1.6552S69.4615 48.9103 69.4615 48V18.8855L53.8988 3.31034H3.30769V89.3793H38.0385c.9096 0 1.6538.7448 1.6538 1.6552 0 .9103-.7442 1.6552-1.6538 1.6552z" fill="#686868"/><path d="M64.5 94.3449c10.9607 0 19.8461-8.8926 19.8461-19.8621 0-10.9695-8.8854-19.8621-19.8461-19.8621-10.9608 0-19.8462 8.8926-19.8462 19.8621 0 10.9695 8.8854 19.8621 19.8462 19.8621z" fill="#A9A9A9"/><path d="M64.5 96.0001c-11.8746 0-21.5-9.6331-21.5-21.5173 0-11.8841 9.6254-21.5172 21.5-21.5172S86 62.5987 86 74.4828c-.0165 11.8842-9.6254 21.5007-21.5 21.5173zm0-39.7242c-10.0554 0-18.1923 8.1435-18.1923 18.2069 0 10.0635 8.1369 18.2069 18.1923 18.2069 10.0554 0 18.1923-8.1434 18.1923-18.2069-.0165-10.0469-8.1535-18.1903-18.1923-18.2069z" fill="#686868"/><path d="M64.5 86.069c-.9096 0-1.6538-.7448-1.6538-1.6551V64.5518c0-.9104.7442-1.6552 1.6538-1.6552.9097 0 1.6539.7448 1.6539 1.6552v19.8621c0 .9103-.7442 1.6551-1.6539 1.6551z" fill="#fff"/><path d="M74.4231 76.138H54.5769c-.9096 0-1.6538-.7448-1.6538-1.6552 0-.9103.7442-1.6552 1.6538-1.6552h19.8462c.9096 0 1.6538.7449 1.6538 1.6552 0 .9104-.7442 1.6552-1.6538 1.6552z" fill="#fff"/></g><defs><clipPath id="clip0"><path fill="#fff" d="M0 0h86v96H0z"/></clipPath></defs></svg>

<svg width="86" height="96" viewBox="0 0 86 96" fill="none" xmlns="http://www.w3.org/2000/svg">
<g clip-path="url(#clip0)">
<path d="M71.1153 91.0345H1.65381V1.65515H54.5769L71.1153 18.2069V91.0345Z" fill="white"/>
<path d="M54.5769 1.65515V18.2069H71.1154L54.5769 1.65515Z" fill="#A9A9A9"/>
<path d="M71.1154 19.8621H54.5769C53.6673 19.8621 52.9231 19.1172 52.9231 18.2069V1.65517C52.9231 0.744828 53.6673 0 54.5769 0C55.0235 0 55.4369 0.182069 55.7512 0.48L72.2896 17.0317C72.9346 17.6772 72.9346 18.72 72.2896 19.3655C71.9754 19.68 71.5619 19.8621 71.1154 19.8621ZM56.2308 16.5517H67.1296L56.2308 5.64414V16.5517Z" fill="#686868"/>
<path d="M38.0385 92.6897H1.65385C0.744231 92.6897 0 91.9448 0 91.0345V1.65517C0 0.744828 0.744231 0 1.65385 0H54.5769C55.0235 0 55.4369 0.182069 55.7512 0.48L72.2896 17.0317C72.5873 17.3462 72.7692 17.76 72.7692 18.2069V48C72.7692 48.9103 72.025 49.6552 71.1154 49.6552C70.2058 49.6552 69.4615 48.9103 69.4615 48V18.8855L53.8988 3.31034H3.30769V89.3793H38.0385C38.9481 89.3793 39.6923 90.1241 39.6923 91.0345C39.6923 91.9448 38.9481 92.6897 38.0385 92.6897Z" fill="#686868"/>
<path d="M64.5 94.3449C75.4607 94.3449 84.3461 85.4523 84.3461 74.4828C84.3461 63.5133 75.4607 54.6207 64.5 54.6207C53.5392 54.6207 44.6538 63.5133 44.6538 74.4828C44.6538 85.4523 53.5392 94.3449 64.5 94.3449Z" fill="#A9A9A9"/>
<path d="M64.5 96.0001C52.6254 96.0001 43 86.367 43 74.4828C43 62.5987 52.6254 52.9656 64.5 52.9656C76.3746 52.9656 86 62.5987 86 74.4828C85.9835 86.367 76.3746 95.9835 64.5 96.0001ZM64.5 56.2759C54.4446 56.2759 46.3077 64.4194 46.3077 74.4828C46.3077 84.5463 54.4446 92.6897 64.5 92.6897C74.5554 92.6897 82.6923 84.5463 82.6923 74.4828C82.6758 64.4359 74.5388 56.2925 64.5 56.2759Z" fill="#686868"/>
<path d="M64.5 86.069C63.5904 86.069 62.8462 85.3242 62.8462 84.4139V64.5518C62.8462 63.6414 63.5904 62.8966 64.5 62.8966C65.4097 62.8966 66.1539 63.6414 66.1539 64.5518V84.4139C66.1539 85.3242 65.4097 86.069 64.5 86.069Z" fill="white"/>
<path d="M74.4231 76.138H54.5769C53.6673 76.138 52.9231 75.3932 52.9231 74.4828C52.9231 73.5725 53.6673 72.8276 54.5769 72.8276H74.4231C75.3327 72.8276 76.0769 73.5725 76.0769 74.4828C76.0769 75.3932 75.3327 76.138 74.4231 76.138Z" fill="white"/>
</g>
<defs>
<clipPath id="clip0">
<rect width="86" height="96" fill="white"/>
</clipPath>
</defs>
</svg>
